archdroid-icon-theme/Archdroid-LightGreen/mimetypes/scalable/unknown.svg

<svg fill="#8BC34A" height="48" viewBox="0 0 48 48" width="48" xmlns="http://www.w3.org/2000/svg"><path d="m10 6c-2.21 0-4 1.79-4 4v28c0 2.21 1.79 4 4 4h28c2.21 0 4-1.79 4-4v-28c0-2.21-1.79-4-4-4zm14 6.875c3.512164 0 6.357422 2.845259 6.357422 6.357422 0 1.398509-.564583 2.66224-1.486328 3.583984l-1.421875 1.460938c-1.144234 1.144234-1.859375 2.106412-1.859375 4.490234h-3.179688v-.794922c0-1.756082.715141-3.345866 1.859375-4.498047l1.978516-2.001953c.572117-.572116.929687-1.366166.929687-2.240234 0-1.756082-1.421652-3.177735-3.177734-3.177734-1.756082 0-3.177734 1.421652-3.177734 3.177734h-3.179688c0-3.512163 2.845258-6.357422 6.357422-6.357422zm-1.589844 19.070312h3.179688v3.179688h-3.179688z" fill="#8BC34A"/></svg>

<svg fill="#8BC34A" height="48" version="1.1" viewBox="0 0 48 48" width="48" xmlns="http://www.w3.org/2000/svg"><path d="M10 6C7.79 6 6 7.79 6 10L6 38C6 40.21 7.79 42 10 42L38 42C40.21 42 42 40.21 42 38L42 10C42 7.79 40.21 6 38 6L10 6zM24 12.875C27.512164 12.875 30.357422 15.720259 30.357422 19.232422 30.357422 20.630931 29.792839 21.894662 28.871094 22.816406L27.449219 24.277344C26.304985 25.421578 25.589844 26.383756 25.589844 28.767578L22.410156 28.767578 22.410156 27.972656C22.410156 26.216574 23.125297 24.62679 24.269531 23.474609L26.248047 21.472656C26.820164 20.90054 27.177734 20.10649 27.177734 19.232422 27.177734 17.47634 25.756082 16.054687 24 16.054688 22.243918 16.054688 20.822266 17.47634 20.822266 19.232422L17.642578 19.232422C17.642578 15.720259 20.487836 12.875 24 12.875zM22.410156 31.945312L25.589844 31.945312 25.589844 35.125 22.410156 35.125 22.410156 31.945312z"/></svg>
